X:2480
T:Lyckliga tiden
S:Bingsjö långdans efter Päckos Gustaf
S:Efter Jenny Bergman
Z:[[http://www.bluerose.karenlmyers.org/IncipitsLangdans4.html|Karen Myers (#2480)]]
Z:Upptecknad 5/2005
M:3/4
L:1/8
R:Långdans
O:Bingsjö, Dalarna
K:D
d4 A2 | {A}d4 (f{gf}e | f)d (c{dc}B) cA |1 (({A}B4) {c2B2}A2) :|2 (({A}B4) D2) ||[K:G]
|: G3 A B^c | d2 (^c{dc}B) cA | G2 G2 {FG}F2 | (({D}E4) {FE}D2) :|
(GF G)A B^c | d2 (^c{dc}B) cA | G2 G2 {FG}F2 | (({D}E4) {FE}D2) |
G3 A B^c | d2 (^c{dc}B) cA | G2 "^To Coda" G2 {FG}F2 |"^D.C. al Coda" (({D}E4) A2)  || "^CODA"{D}E4 z2 |]
